X: 1900
T: Uzun da Kavak...
C: Ekrem Güyer
O: Turkey
F: http://compmusic.upf.edu/node/140
N: suzinak-zirgule--turku--oynak--uzun_da_kavak--izmir
N: makam= suzinak-zirgule
N: form= turku
N: usul= oynak = 9/8
M: 9/8
L: 1/16
K: C _1/4B _7/8e _7/8A ^f
Q: 1/4=120
%%MIDI tuningsystem comma53
d2e2 e2e3/2d/ c2d2 dggf ed | {e}c2 B3/2c/B2 c2BA AGGA Bcd2  | 
w:  ARANAĞME  |   | 
dee2 e2{f}e3/2d/ c2d2 dggf ed | {e}c2 B3/2c/B2 c2BA AGG6  | 
w:   |   | 
d2_2/4ed =fgf_3/4e d2d6 fg | g2 g2g/=f/g/=a/ gfg2 aff3/2e/ e3/2d/d2  | 
w:  U zun  *  da  *  ka *  *  vak  da  |  lın da  sal *  *  *  *  *  la nı *  yor    | 
d2_2/4ed =fgf_3/4e d2d6 fg | g2 g2g/=f/g/=a/ gfg2 aff3/2e/ e3/2d/d2  | 
w:  U zun  *  da  *  ka *  *  vak  da  |  lın da  sal *  *  *  *  *  la nı *  yor    | 
dee2 e2e3/2d/ c2d2 dggf ed | c2 B3/2c/B2 c2BA AGGA Bcd2  | 
w:  Al *  tın da  naz *  *  lı  yâ *  rim   |  *  eğ *  *  le ni *  *  *  yor    | 
dee2 e2e3/2d/ c2d2 dggf ed | {e}c2 B3/2c/B2 c2BA AGG6  | 
w:  Al *  tın da  naz *  *  lı  yâ *  rim   |  *  *  eğ *  *  le ni *  *  *  yor    | 
d2_2/4ed =fgf_3/4e d2d6 fg | g2 g2g/=f/g/=a/ gfg2 a2f3/2e/ e3/2d/d2  | 
w:  Sen  *  *  gü *  zel *  *  sin  a  |  dın da  dil *  *  *  *  *  le ni yor    | 
d2_2/4ed =fgf_3/4e d2d6 fg | g2 g2g/=f/g/=a/ gfg2 a2f3/2e/ e3/2d/d2  | 
w:  Sen  *  *  gü *  zel *  *  sin  a  |  dın da  dil *  *  *  *  *  le ni yor    | 
dee2 e2e3/2d/ c2d2 dggf ed | {e}c2 B3/2c/B2 c2BA AGGA Bcd2  | 
w:  İ *  ma nım  Es *  *  ma  Es *  ma   |  *  *  se *  ver ler  yos *  *  *  ma    | 
dee2 e2e3/2d/ c2d2 dggf ed | {e}c2 B3/2c/B2 c2BA AGG6  | 
w:  Bu  *  can  da  sa *  na  kur ban   |  *  *  ol *  *  sun  Es *  *  *  ma    | 
dee2 e2e3/2d/ c2d2 dggf ed | {e}c2 B3/2c/B2 c2BA AGGA Bcd2  | 
w:  İ *  ma nım  Es *  *  ma  Es *  ma   |  *  *  se *  ver ler  yos *  *  *  ma    | 
dee2 e2e3/2d/ c2d2 dggf ed | {e}c2 B3/2c/B2 c2BA AGG6  | 
w:  Bu  *  can  da  sa *  na  kur ban   |  *  *  ol *  *  sun  Es *  *  *  ma    | 
d2e2 e2e3/2d/ c2d2 dggf ed | {e}c2 B3/2c/B2 c2BA AGGA Bcd2  | 
w:  ARANAĞME  |   | 
dee2 e2{f}e3/2d/ c2d2 dggf ed | {e}c2 B3/2c/B2 c2BA AGG6  | 
w:   |   | 
d2_2/4ed =fgf_3/4e d2d6 fg | g2 g2g/=f/g/=a/ gfg2 aff3/2e/ e3/2d/d2  | 
w:  U zun  *  da  *  ka *  *  vak  da  |  lın da  sal *  *  *  *  *  la nı *  yor    | 
d2_2/4ed =fgf_3/4e d2d6 fg | g2 g2g/=f/g/=a/ gfg2 aff3/2e/ e3/2d/d2  | 
w:  U zun  *  da  *  ka *  *  vak  da  |  lın da  sal *  *  *  *  *  la nı *  yor    | 
dee2 e2e3/2d/ c2d2 dggf ed | c2 B3/2c/B2 c2BA AGGA Bcd2  | 
w:  Al *  tın da  naz *  *  lı  yâ *  rim   |  *  eğ *  *  le ni *  *  *  yor    | 
dee2 e2e3/2d/ c2d2 dggf ed | {e}c2 B3/2c/B2 c2BA AGG6  | 
w:  Al *  tın da  naz *  *  lı  yâ *  rim   |  *  *  eğ *  *  le ni *  *  *  yor    | 
d2_2/4ed =fgf_3/4e d2d6 fg | g2 g2g/=f/g/=a/ gfg2 a2f3/2e/ e3/2d/d2  | 
w:  Sen  *  *  gü *  zel *  *  sin  a  |  dın da  dil *  *  *  *  *  le ni yor    | 
d2_2/4ed =fgf_3/4e d2d6 fg | g2 g2g/=f/g/=a/ gfg2 a2f3/2e/ e3/2d/d2  | 
w:  Sen  *  *  gü *  zel *  *  sin  a  |  dın da  dil *  *  *  *  *  le ni yor    | 
dee2 e2e3/2d/ c2d2 dggf ed | {e}c2 B3/2c/B2 c2BA AGGA Bcd2  | 
w:  İ *  ma nım  Es *  *  ma  Es *  ma   |  *  *  se *  ver ler  yos *  *  *  ma    | 
dee2 e2e3/2d/ c2d2 dggf ed | {e}c2 B3/2c/B2 c2BA AGG6  | 
w:  Bu  *  can  da  sa *  na  kur ban   |  *  *  ol *  *  sun  Es *  *  *  ma    | 
dee2 e2e3/2d/ c2d2 dggf ed | {e}c2 B3/2c/B2 c2BA AGGA Bcd2  | 
w:  İ *  ma nım  Es *  *  ma  Es *  ma   |  *  *  se *  ver ler  yos *  *  *  ma    | 
dee2 e2e3/2d/ c2d2 dggf ed | {e}c2 B3/2c/B2 c2BA AGG6  | 
w:  Bu  *  can  da  sa *  na  kur ban   |  *  *  ol *  *  sun  Es *  *  *  ma    | 
|


